src/status/16/fcitx-kkc.svg

<?xml version="1.0" encoding="UTF-8"?>
<svg width="16" height="16" version="1.1" xmlns="http://www.w3.org/2000/svg">
 <defs>
  <style id="current-color-scheme" type="text/css"/>
 </defs>
 <path d="m2 4h1v4.293l2.293-2.293h0.707v-2h1v4.293l2.293-2.293h1.414l-3 3 3 3h-1.414l-2.293-2.293v2.293h-1.707l-2.293-2.293v2.293h-1zm10 2c0.583 0 1.111 0.154 1.479 0.521 0.367 0.368 0.521 0.896 0.521 1.479h-1c0-0.417-0.096-0.64-0.229-0.771-0.132-0.133-0.354-0.229-0.771-0.229s-0.639 0.096-0.771 0.229c-0.133 0.131-0.229 0.354-0.229 0.771v2c0 0.417 0.096 0.639 0.229 0.771 0.132 0.133 0.354 0.229 0.771 0.229s0.639-0.096 0.771-0.229c0.133-0.132 0.229-0.354 0.229-0.771h1c0 0.583-0.154 1.111-0.521 1.479-0.368 0.367-0.896 0.521-1.479 0.521s-1.111-0.154-1.479-0.521c-0.367-0.368-0.521-0.896-0.521-1.479v-2c0-0.583 0.154-1.11 0.521-1.479 0.368-0.367 0.896-0.521 1.479-0.521zm-6 0.707-2.293 2.293 2.293 2.293z" color="#363636" fill="currentColor"/>
 <path class="ColorScheme-Text" d="m3 0c-1.662 0-3 1.338-3 3v10c0 1.662 1.338 3 3 3h9.9989c1.662 0 3-1.338 3-3v-10c0-1.662-1.338-3-3-3zm0 1h9.9989c1.108 0 2 0.892 2 2v10c0 1.108-0.892 2-2 2h-9.9989c-1.108 0-2-0.892-2-2v-10c0-1.108 0.892-2 2-2z" color="#363636" fill="currentColor"/>
</svg>

<svg xmlns="http://www.w3.org/2000/svg" width="16" height="16">
    <path fill="currentColor" fill-opacity=".7" d="M2 4h1v4.293L5.293 6H6V4h1v4.293L9.293 6h1.414l-3 3 3 3H9.293L7 9.707V12H5.293L3 9.707V12H2zm10 2c.583 0 1.111.154 1.479.521.367.368.521.896.521 1.479h-1c0-.417-.096-.64-.229-.771C12.639 7.096 12.417 7 12 7s-.639.096-.771.229C11.096 7.36 11 7.583 11 8v2c0 .417.096.639.229.771.132.133.354.229.771.229s.639-.096.771-.229c.133-.132.229-.354.229-.771h1c0 .583-.154 1.111-.521 1.479-.368.367-.896.521-1.479.521s-1.111-.154-1.479-.521C10.154 11.111 10 10.583 10 10V8c0-.583.154-1.11.521-1.479C10.889 6.154 11.417 6 12 6zm-6 .707L3.707 9 6 11.293z" color="#050505"/>
    <path fill="currentColor" fill-opacity=".7" d="M3 0C1.338 0 0 1.338 0 3v10c0 1.662 1.338 3 3 3h9.999c1.662 0 3-1.338 3-3V3c0-1.662-1.338-3-3-3zm0 1h9.999c1.108 0 2 .892 2 2v10c0 1.108-.892 2-2 2H3c-1.108 0-2-.892-2-2V3c0-1.108.892-2 2-2z" class="ColorScheme-Text" color="#050505"/>
</svg>
